X:1
T:Lord Rendal
M:3/4
L:1/4
K:C
 G| G B B| d c A| A G G| G2 B| B A A| A B c| e c c| d2 d| e c c| g d B/2c/2|\
 d d d| d2 B/2A/2| G B B| d c A| A G G| G2||
